!!!COM: Dunstable, John
!!!OTL: Beata Mater
!!!ONM: No. 42
!!!YOR: from: "Musica Britannica" Vol. 8, edited by Manfred F. Bukofzer,
!!!YOR: 2nd rev. ed. (prepared by Margaret Bent, Ian Bent & Brian Trowell), p.110
!!!YOO: Royal Musical Association (London)
!!!YOY: 1970
**kern	**kern	**kern
*ICvox	*ICvox	*ICvox
! tenor	! contratenor	! discantus
*M3/4	*M3/4	*M3/4
=1	=1	=1
*>A	*>A	*>A
!! Section 'A'; (O) mensuration.
[2.c	[2.c	2.c
=2	=2	=2
2.c]	2c]	8e
.	.	8f
.	.	4g
.	4e	4a
=3	=3	=3
2F	4f	4.a
.	8e	.
.	4d	8g
[4A	.	8g
.	8c	8a
=4	=4	=4
4A]	2c	4.f
2G	.	.
.	.	8e
.	4B	8e
.	.	8d
=5	=5	=5
[2.F	2c	2f
.	4A	4d
=6	=6	=6
2.F]	4c	4r
.	4.d	4.a
.	8c	8g
=7	=7	=7
[2.C	[2.c	4g
.	.	4e
.	.	4c
=8	=8	=8
2.C]	4c]	4g
.	2G	8f
.	.	4e
.	.	8d
=9	=9	=9
2.F	2A	4d
.	.	4c
.	[4c	[4A
=10	=10	=10
2.A	4c]	8A]
.	.	8B
.	4A	8c
.	.	8d
.	4c	8e
.	.	8f
=11	=11	=11
2G	2B	8g
.	.	8f
.	.	8e
.	.	8d
4F	4A	12d
.	.	12c
.	.	12d
=12	=12	=12
4G	4E	8e
.	.	4d
4D	4F#x	.
.	.	8B
4E	4G#x	4c#x
=13	=13	=13
[2.D	[2.A	2.d
=14	=14	=14
2.D]	2.A]	2.r
=15	=15	=15
2.A	[2.D	4.fnx
.	.	8g
.	.	[4a
=16	=16	=16
2.d	2.D]	4a]
.	.	4.b-
.	.	8a
=17	=17	=17
2.c	2F	4.a
.	.	8g
.	4A	8e
.	.	8f
=18	=18	=18
4B-x	4G	4d
2A	8A	4c
.	4c	.
.	.	[4f
.	8B-	.
=19	=19	=19
2F	4A	4f]
.	2F	2g
[4A	.	.
=20	=20	=20
4A]	2c	4.f
2G	.	.
.	.	16e
.	.	16f
.	4B	8e
.	.	8d
=21	=21	=21
[2.F	2c	4f
.	.	4r
.	4r	4a
=22	=22	=22
4F]	2d	4a
2G	.	8g
.	.	8f
.	[4B-x	8e
.	.	8d
=23	=23	=23
2.B-	4B-x]	2d
.	2G	.
.	.	4g
=24	=24	=24
2A	2D	4f
.	.	2a
4F	4A	.
=25	=25	=25
4G	4B	2g
2A	2c	.
.	.	8f#x
.	.	8e
=26	=26	=26
2.G	4d	2g
.	2B	.
.	.	4e
=27	=27	=27
2.D	2A	4f
.	.	4.a
.	4d	.
.	.	8g
=28	=28	=28
2.E	4B	4g
.	4c	4e
.	4G	4c
=29	=29	=29
2.F	4A	8d
.	.	4f
.	4D	.
.	.	8e
.	8A	8d
.	8G	8c
=30	=30	=30
4E	2G	12c
.	.	12B
.	.	12c
2D	.	4d
.	4F#x	8B
.	.	8A
=31	=31	=31
[2.C	[2.G	[2.c
=31a	=31a	=31a
2.C]	2.G]	2.c]
=32	=32	=32
*>B	*>B	*>B
!! Section 'B'; (O) mensuration.
2.c	2.r	2.c
=33	=33	=33
2.B	2.r	2d
.	.	[4g
=34	=34	=34
[2.c	2.r	4g]
.	.	2a
=35	=35	=35
4c]	2.r	4g
2d	.	4f
.	.	4d
=36	=36	=36
4B	2.r	4g
4A	.	4.a
[4c	.	.
.	.	8g
=37	=37	=37
4c]	2.r	4.g
2A	.	.
.	.	4f#x
.	.	8e
=38	=38	=38
2.G	2.r	2g
.	.	4e
=39	=39	=39
2.r	2.r	2.r
=40	=40	=40
2.d	2.r	4.f#
.	.	8g
.	.	4a
=41	=41	=41
2.c	2.r	4a
.	.	4g
.	.	8e
.	.	8d
=42	=42	=42
4B	2.r	4d
4c	.	4.e
[4e	.	.
.	.	8c
=43	=43	=43
4e]	2.r	8c
.	.	16B
.	.	16c
2d	.	8d
.	.	4B
.	.	8A
=44	=44	=44
2c	2.r	4c
.	.	4r
4r	.	4e
=45	=45	=45
4B-x	2.r	4d
4A	.	4.a
4F	.	.
.	.	8g
=46	=46	=46
4G	2.r	4g
2A	.	4f#x
.	.	8g
.	.	8e
=47	=47	=47
2.G	2.r	4g
.	.	4r
.	.	4e
=48	=48	=48
2.D	2.r	4.a
.	.	8g
.	.	8f
.	.	8e
=49	=49	=49
4G	2.r	4e
8A	.	4c
4c	.	.
.	.	8e
8B	.	8d
=50	=50	=50
8G	2.r	8B
8F	.	4A
4A	.	.
.	.	8c
8G	.	8B
8F	.	[8d
=51	=51	=51
4D	2.r	8d]
.	.	4A
4F	.	.
.	.	8d
4E	.	8e
.	.	8c#x
=52	=52	=52
[2.D	2.r	[2.d
=52a	=52a	=52a
2.D]	2.r	2.d]
*M2/2	*M2/2	*M2/2
=53	=53	=53
*>C	*>C	*>C
!! Section 'C'; (C/) mensuration.
[1G	1G	1d
=54	=54	=54
1G]	[1C	4e
.	.	4f
.	.	[2g
=55	=55	=55
1c	2C]	4g]
.	.	2a
.	4r	.
.	4E	4g
=56	=56	=56
2d	2D	4f
.	.	4d
4c	4A	4e
4B	4G	[4g
=57	=57	=57
2G	4B	2.g]
.	4d	.
2A	2c#x	.
.	.	4f#x
=58	=58	=58
[1G	2d	2g
.	4e	2r
.	4d	.
=59	=59	=59
1G]	4B	2.e
.	4G	.
.	2B	.
.	.	4d
=60	=60	=60
4F	4A	4f
4E	4G	2g
2C	[2c	.
.	.	4e
=61	=61	=61
4E	4c]	4g
4D	2d	4f
2F	.	4d
.	4A	4f
=62	=62	=62
2C	2G	4e
.	.	2c
2E	4r	.
.	4E	[4d
=63	=63	=63
2F	2D	8d]
.	.	8c
.	.	4d
2D	2F#x	4B
.	.	4A
=64	=64	=64
1C	1G	2c
.	.	2r
=65	=65	=65
1G	2r	1B
.	[2d	.
=66	=66	=66
1F	4d]	2A
.	4c	.
.	2A	4c
.	.	4d
=67	=67	=67
1E	2B	2e
.	2G	4c
.	.	[4e
=68	=68	=68
1C	4r	8e]
.	.	8f
.	2c	2g
.	[4A	4f
=69	=69	=69
2F	4A]	4d
.	4c	4.e
2G	2B	.
.	.	8d
.	.	4d
=70	=70	=70
1A	2A	4c
.	.	2A
.	4r	.
.	4F	[4c
=71	=71	=71
1G	1C	8c]
.	.	8d
.	.	8e
.	.	8f
.	.	4.g
.	.	8f
=72	=72	=72
2F	4F	8e
.	.	8d
.	4A	4.d
2E	2G#x	8c#x
.	.	8c#x
.	.	8B
=73	=73	=73
1D	1A	1d
==	==	==
*-	*-	*-
!!!ENC: Mark Laxton
!!!EDD: Mark Laxton
!!!YEC: Mark Laxton, 1987
!!!EMD: Reference records added by D. Huron, 2001
!!!EEV: 1.1
